src/public/img/landing/new/docs-code/esm.svg

<svg width="44" height="17" viewBox="0 0 44 17" fill="none" xmlns="http://www.w3.org/2000/svg">
<path d="M0.817251 16V0.599999H11.5533V3.79H4.44725V12.81H11.7733V16H0.817251ZM2.57725 9.686V6.65H10.5633V9.686H2.57725ZM19.5009 16.22C18.4889 16.22 17.5723 16.1027 16.7509 15.868C15.9443 15.6187 15.2256 15.2667 14.5949 14.812C13.9643 14.3427 13.3996 13.7927 12.9009 13.162L15.1669 10.588C15.9003 11.5707 16.6336 12.2307 17.3669 12.568C18.1149 12.9053 18.8849 13.074 19.6769 13.074C20.0729 13.074 20.4323 13.0227 20.7549 12.92C21.0776 12.8173 21.3269 12.6707 21.5029 12.48C21.6789 12.2747 21.7669 12.0253 21.7669 11.732C21.7669 11.512 21.7083 11.314 21.5909 11.138C21.4883 10.962 21.3416 10.808 21.1509 10.676C20.9603 10.544 20.7329 10.4267 20.4689 10.324C20.2049 10.2067 19.9263 10.1113 19.6329 10.038C19.3396 9.95 19.0389 9.87667 18.7309 9.818C17.8803 9.62733 17.1396 9.39267 16.5089 9.114C15.8783 8.83533 15.3503 8.498 14.9249 8.102C14.5143 7.69133 14.2063 7.22933 14.0009 6.716C13.7956 6.188 13.6929 5.60133 13.6929 4.956C13.6929 4.26667 13.8469 3.636 14.1549 3.064C14.4776 2.47733 14.9029 1.97867 15.4309 1.568C15.9736 1.14267 16.5969 0.819999 17.3009 0.599999C18.0049 0.365333 18.7383 0.248 19.5009 0.248C20.5129 0.248 21.3783 0.357999 22.0969 0.577999C22.8303 0.783333 23.4536 1.084 23.9669 1.48C24.4949 1.876 24.9423 2.35267 25.3089 2.91L22.9989 5.132C22.6909 4.75067 22.3536 4.43533 21.9869 4.186C21.6349 3.93667 21.2536 3.746 20.8429 3.614C20.4469 3.482 20.0363 3.416 19.6109 3.416C19.1709 3.416 18.7896 3.47467 18.4669 3.592C18.1589 3.69467 17.9169 3.84867 17.7409 4.054C17.5649 4.24467 17.4769 4.47933 17.4769 4.758C17.4769 5.00733 17.5503 5.22 17.6969 5.396C17.8436 5.572 18.0416 5.73333 18.2909 5.88C18.5403 6.012 18.8263 6.12933 19.1489 6.232C19.4716 6.32 19.8089 6.39333 20.1609 6.452C20.9676 6.61333 21.6936 6.826 22.3389 7.09C22.9989 7.354 23.5636 7.67667 24.0329 8.058C24.5169 8.43933 24.8836 8.894 25.1329 9.422C25.3969 9.93533 25.5289 10.5367 25.5289 11.226C25.5289 12.2967 25.2649 13.206 24.7369 13.954C24.2236 14.6873 23.5123 15.252 22.6029 15.648C21.7083 16.0293 20.6743 16.22 19.5009 16.22ZM27.7403 16V0.599999H31.0843L36.6943 9.73L34.2963 9.708L39.9723 0.599999H43.1843V16H39.5543V11.204C39.5543 9.884 39.5836 8.696 39.6423 7.64C39.7156 6.584 39.833 5.53533 39.9943 4.494L40.4123 5.638L36.1443 12.26H34.6923L30.5123 5.682L30.9303 4.494C31.0916 5.47667 31.2016 6.48867 31.2603 7.53C31.3336 8.55667 31.3703 9.78133 31.3703 11.204V16H27.7403Z" fill="white"/>
</svg>

<svg xmlns="http://www.w3.org/2000/svg" width="44" height="17" fill="none">
  <path fill="#fff" d="M.817 16V.6h10.736v3.19H4.447v9.02h7.326V16H.817Zm1.76-6.314V6.65h7.986v3.036H2.577Zm16.924 6.534c-1.012 0-1.929-.117-2.75-.352a7.383 7.383 0 0 1-2.156-1.056 9.015 9.015 0 0 1-1.694-1.65l2.266-2.574c.733.983 1.467 1.643 2.2 1.98a5.563 5.563 0 0 0 2.31.506c.396 0 .755-.051 1.078-.154.323-.103.572-.25.748-.44a1.11 1.11 0 0 0 .264-.748c0-.22-.059-.418-.176-.594a1.457 1.457 0 0 0-.44-.462 3.292 3.292 0 0 0-.682-.352 5.097 5.097 0 0 0-.836-.286 8.991 8.991 0 0 0-.902-.22c-.85-.19-1.591-.425-2.222-.704-.63-.279-1.159-.616-1.584-1.012A4.104 4.104 0 0 1 14 6.716a4.82 4.82 0 0 1-.308-1.76c0-.69.154-1.32.462-1.892a4.816 4.816 0 0 1 1.276-1.496A5.809 5.809 0 0 1 17.3.6a6.911 6.911 0 0 1 2.2-.352c1.012 0 1.877.11 2.596.33.733.205 1.357.506 1.87.902.528.396.975.873 1.342 1.43l-2.31 2.222a4.708 4.708 0 0 0-1.012-.946 4.181 4.181 0 0 0-1.144-.572 3.87 3.87 0 0 0-1.232-.198c-.44 0-.821.059-1.144.176-.308.103-.55.257-.726.462a1 1 0 0 0-.264.704c0 .25.073.462.22.638.147.176.345.337.594.484.25.132.535.25.858.352.323.088.66.161 1.012.22.807.161 1.533.374 2.178.638.66.264 1.225.587 1.694.968.484.381.85.836 1.1 1.364.264.513.396 1.115.396 1.804 0 1.07-.264 1.98-.792 2.728-.513.733-1.225 1.298-2.134 1.694-.895.381-1.929.572-3.102.572Zm8.24-.22V.6h3.343l5.61 9.13-2.398-.022L39.972.6h3.212V16h-3.63v-4.796c0-1.32.03-2.508.088-3.564a37.92 37.92 0 0 1 .352-3.146l.418 1.144-4.268 6.622h-1.452l-4.18-6.578.418-1.188c.162.983.272 1.995.33 3.036.074 1.027.11 2.251.11 3.674V16h-3.63Z"/>
</svg>
